src/assets/selectIcons/musica_3.svg

<svg xmlns="http://www.w3.org/2000/svg" viewBox="0 0 512 512"><path d="M0 0h512v512H0z"/><path fill="#fff" d="M108.656 35.063c-15.053.138-33.413 5.378-46.97 15.812-10.75 8.276-18.777 19.27-21.186 34.438.21-.126.414-.252.625-.376-.843 2.816-1.313 5.786-1.313 8.876 0 17.087 13.85 30.937 30.938 30.937 14.293 0 26.324-9.705 29.875-22.875.028-.115.067-.23.094-.344.48-2.082.768-4.042.905-5.843.025-.327.017-.65.03-.968.005-.126.03-.25.032-.376.007-.182-.002-.353 0-.53 0-1.526-.098-3.036-.312-4.5-1.367-8.018-6.778-12.156-12.594-13.72-8.527-2.293-19.055.637-23.75 18.156l-.468-.125C62.04 74.12 72.213 63.885 83.94 60.78c2.476-.654 5.053-1.005 7.656-.968 9.072.13 18.445 4.88 24.562 17.126.087.173.165.355.25.53 5.208 15.233 2.11 43.32-3.344 57.626-7.288 18.753-22.376 40.504-47.687 65.5C6.99 258.252 4 329.824 39.97 388.814 75.936 447.8 152.13 493.56 254.437 493.56c102.306 0 178.47-45.76 214.437-104.75 35.882-58.848 32.982-130.225-25-187.812l-.406-.406h-.033c-25.31-24.996-40.367-46.747-47.656-65.5-5.23-16.453-9.09-42.988-2.655-57.625.058-.128.128-.25.188-.376.025-.05.037-.106.062-.156 6.117-12.246 15.49-16.996 24.563-17.126 2.602-.037 5.18.314 7.656.97 11.724 3.102 21.87 13.337 19.344 32.843l-.438.125c-4.694-17.52-15.222-20.45-23.75-18.156-4.41 1.185-8.603 3.85-10.97 8.562-.012.04-.017.085-.03.125-.975 3.007-1.5 6.203-1.5 9.532 0 17.088 13.85 30.938 30.938 30.938 17.087 0 30.937-13.85 30.937-30.938 0-4.355-.907-8.49-2.53-12.25-3.058-13.244-10.598-23.112-20.44-30.687-14.458-11.13-34.39-16.363-49.936-15.78-13.378.5-24.85 4.108-33.22 10.53-3.412 2.617-6.383 5.702-8.844 9.375-69.455 35.508-138.89 38.75-208.344-7.75-.642-.557-1.29-1.105-1.968-1.625-8.37-6.422-19.843-10.03-33.22-10.53-.97-.037-1.964-.042-2.968-.032zm52.78 53.124c6.338 2.648 12.666 4.987 19 7.032v313.06c-30.732-8.258-57.886-22.005-77.374-41.31-17.1-16.94-28.077-38.626-28.906-63.595-.828-24.97 8.274-52.702 28.97-82.625 41.323-59.752 57.163-103.6 58.31-132.563zm186.033 1.407c1.6 28.97 17.593 72.37 58.25 131.156 20.693 29.923 29.796 57.656 28.967 82.625-.828 24.97-11.807 46.654-28.906 63.594-19.023 18.846-45.374 32.4-75.217 40.717V94.844c5.636-1.606 11.27-3.35 16.906-5.25zm-35.595 10v312.53c-8.21 1.63-16.606 2.878-25.125 3.782V104.094c8.376-1.122 16.75-2.63 25.125-4.5zm-112.75.78c8.45 1.97 16.894 3.442 25.344 4.44v311.342c-8.59-.84-17.057-2.05-25.345-3.625V100.376zm68.938 5.564v311.375c-4.54.198-9.088.312-13.657.312-3.76 0-7.506-.053-11.25-.188V106.28c8.293.314 16.614.18 24.906-.343z"/></svg>

<?xml version="1.0" encoding="UTF-8" standalone="no"?>
<!DOCTYPE svg PUBLIC "-//W3C//DTD SVG 1.1//EN" "http://www.w3.org/Graphics/SVG/1.1/DTD/svg11.dtd">
<svg width="100%" height="100%" viewBox="0 0 512 512" version="1.1" xmlns="http://www.w3.org/2000/svg" xmlns:xlink="http://www.w3.org/1999/xlink" xml:space="preserve" xmlns:serif="http://www.serif.com/" style="fill-rule:evenodd;clip-rule:evenodd;stroke-linejoin:round;stroke-miterlimit:2;">
    <rect x="0" y="0" width="512" height="512" style="fill-rule:nonzero;"/>
    <path d="M108.656,35.063C93.603,35.201 75.243,40.441 61.686,50.875C50.936,59.151 42.909,70.145 40.5,85.313C40.71,85.187 40.914,85.061 41.125,84.937C40.282,87.753 39.812,90.723 39.812,93.813C39.812,110.9 53.662,124.75 70.75,124.75C85.043,124.75 97.074,115.045 100.625,101.875C100.653,101.76 100.692,101.645 100.719,101.531C101.199,99.449 101.487,97.489 101.624,95.688C101.649,95.361 101.641,95.038 101.654,94.72C101.659,94.594 101.684,94.47 101.686,94.344C101.693,94.162 101.684,93.991 101.686,93.814C101.686,92.288 101.588,90.778 101.374,89.314C100.007,81.296 94.596,77.158 88.78,75.594C80.253,73.301 69.725,76.231 65.03,93.75L64.562,93.625C62.04,74.12 72.213,63.885 83.94,60.78C86.416,60.126 88.993,59.775 91.596,59.812C100.668,59.942 110.041,64.692 116.158,76.938C116.245,77.111 116.323,77.293 116.408,77.468C121.616,92.701 118.518,120.788 113.064,135.094C105.776,153.847 90.688,175.598 65.377,200.594C6.99,258.252 4,329.824 39.97,388.814C75.936,447.8 152.13,493.56 254.437,493.56C356.743,493.56 432.907,447.8 468.874,388.81C504.756,329.962 501.856,258.585 443.874,200.998L443.468,200.592L443.435,200.592C418.125,175.596 403.068,153.845 395.779,135.092C390.549,118.639 386.689,92.104 393.124,77.467C393.182,77.339 393.252,77.217 393.312,77.091C393.337,77.041 393.349,76.985 393.374,76.935C399.491,64.689 408.864,59.939 417.937,59.809C420.539,59.772 423.117,60.123 425.593,60.779C437.317,63.881 447.463,74.116 444.937,93.622L444.499,93.747C439.805,76.227 429.277,73.297 420.749,75.591C416.339,76.776 412.146,79.441 409.779,84.153C409.767,84.193 409.762,84.238 409.749,84.278C408.774,87.285 408.249,90.481 408.249,93.81C408.249,110.898 422.099,124.748 439.187,124.748C456.274,124.748 470.124,110.898 470.124,93.81C470.124,89.455 469.217,85.32 467.594,81.56C464.536,68.316 456.996,58.448 447.154,50.873C432.696,39.743 412.764,34.51 397.218,35.093C383.84,35.593 372.368,39.201 363.998,45.623C360.586,48.24 357.615,51.325 355.154,54.998C285.699,90.506 216.264,93.748 146.81,47.248C146.168,46.691 145.52,46.143 144.842,45.623C136.472,39.201 124.999,35.593 111.622,35.093C110.652,35.056 109.658,35.051 108.654,35.061L108.656,35.063ZM161.436,88.187C167.774,90.835 174.102,93.174 180.436,95.219L180.436,408.279C149.704,400.021 122.55,386.274 103.062,366.969C85.962,350.029 74.985,328.343 74.156,303.374C73.328,278.404 82.43,250.672 103.126,220.749C144.449,160.997 160.289,117.149 161.436,88.186L161.436,88.187ZM347.469,89.594C349.069,118.564 365.062,161.964 405.719,220.75C426.412,250.673 435.515,278.406 434.686,303.375C433.858,328.345 422.879,350.029 405.78,366.969C386.757,385.815 360.406,399.369 330.563,407.686L330.563,94.844C336.199,93.238 341.833,91.494 347.469,89.594ZM311.874,99.594L311.874,412.124C303.664,413.754 295.268,415.002 286.749,415.906L286.749,104.094C295.125,102.972 303.499,101.464 311.874,99.594ZM199.124,100.374C207.574,102.344 216.018,103.816 224.468,104.814L224.468,416.156C215.878,415.316 207.411,414.106 199.123,412.531L199.123,100.376L199.124,100.374ZM268.062,105.938L268.062,417.313C263.522,417.511 258.974,417.625 254.405,417.625C250.645,417.625 246.899,417.572 243.155,417.437L243.155,106.28C251.448,106.594 259.769,106.46 268.061,105.937L268.062,105.938Z" style="fill:rgb(190,182,107);fill-rule:nonzero;"/>
</svg>
